X:1
T:Rachel Learns to Love Contra
C:Megan Wobus
S:Megan Wobus composed 2003
M:2/4
R:reel
K:G
|: G,G,B,G, G,CG,G, |G,B,DF GEDB, | G,G,B,G, G,CG,G, |B,G,G,B, A,2B,A, |
 G,G,B,G, G,CG,G, |G,B,DF GEDB, | G,B,DG _BAGE |DB,A,B, G,4 :|
|: [_B4_E4] BAGA | [B4G4] B2BA | GEDB, A,G,A,B, | DEGA BdBG  |
 [_B4_E4] BAGA | [B4G4] B2Bc | dged BAGB | AGFA G4 :|
W:Copyright 2003 Megan Wobus, PGTPPCATPL AORR
